src/xmb/flatui/input_STCK-P.svg

<?xml version="1.0" encoding="UTF-8" standalone="no"?>
<!-- Created with Inkscape (http://www.inkscape.org/) -->

<svg
   xmlns:dc="http://purl.org/dc/elements/1.1/"
   xmlns:cc="http://creativecommons.org/ns#"
   xmlns:rdf="http://www.w3.org/1999/02/22-rdf-syntax-ns#"
   xmlns:svg="http://www.w3.org/2000/svg"
   xmlns="http://www.w3.org/2000/svg"
   xmlns:sodipodi="http://sodipodi.sourceforge.net/DTD/sodipodi-0.dtd"
   xmlns:inkscape="http://www.inkscape.org/namespaces/inkscape"
   id="svg4152"
   version="1.1"
   inkscape:version="0.92.3 (2405546, 2018-03-11)"
   width="64"
   height="64"
   xml:space="preserve"
   sodipodi:docname="input_STCK-P.svg"
   inkscape:export-filename="/Users/margetts/Desktop/Icon Workshop/Monochrome Plus June/png/Libretro - Pad.png"
   inkscape:export-xdpi="360"
   inkscape:export-ydpi="360"><metadata
     id="metadata4158"><rdf:RDF><cc:Work
         rdf:about=""><dc:format>image/svg+xml</dc:format><dc:type
           rdf:resource="http://purl.org/dc/dcmitype/StillImage" /><dc:title /></cc:Work></rdf:RDF></metadata><defs
     id="defs4156"><clipPath
       clipPathUnits="userSpaceOnUse"
       id="clipPath4166"><path
         d="M 0,64 64,64 64,0 0,0 0,64 z"
         id="path4168"
         inkscape:connector-curvature="0" /></clipPath></defs><sodipodi:namedview
     pagecolor="#ffffff"
     bordercolor="#666666"
     borderopacity="1"
     objecttolerance="10"
     gridtolerance="10"
     guidetolerance="10"
     inkscape:pageopacity="0"
     inkscape:pageshadow="2"
     inkscape:window-width="1920"
     inkscape:window-height="1001"
     id="namedview4154"
     showgrid="false"
     inkscape:zoom="7.6"
     inkscape:cx="59.769326"
     inkscape:cy="27.505396"
     inkscape:window-x="-9"
     inkscape:window-y="-9"
     inkscape:window-maximized="1"
     inkscape:current-layer="g4160"><inkscape:grid
       type="xygrid"
       id="grid836" /></sodipodi:namedview><g
     id="g4160"
     inkscape:groupmode="layer"
     inkscape:label="Libretro - Pad"
     transform="matrix(1.25,0,0,-1.25,0,64)"><path
       style="color:#2c3e50;font-style:normal;font-variant:normal;font-weight:normal;font-stretch:normal;font-size:medium;line-height:normal;font-family:sans-serif;font-variant-ligatures:normal;font-variant-position:normal;font-variant-caps:normal;font-variant-numeric:normal;font-variant-alternates:normal;font-feature-settings:normal;text-indent:0;text-align:start;text-decoration:none;text-decoration-line:none;text-decoration-style:solid;text-decoration-color:#2c3e50;letter-spacing:normal;word-spacing:normal;text-transform:none;writing-mode:lr-tb;direction:ltr;text-orientation:mixed;dominant-baseline:auto;baseline-shift:baseline;text-anchor:start;white-space:normal;shape-padding:0;clip-rule:nonzero;display:inline;overflow:visible;visibility:visible;opacity:1;isolation:auto;mix-blend-mode:normal;color-interpolation:sRGB;color-interpolation-filters:linearRGB;solid-color:#2c3e50;solid-opacity:1;vector-effect:none;fill:#ecf0f1;fill-opacity:1;fill-rule:nonzero;stroke:#2c3e50;stroke-width:2;stroke-linecap:round;stroke-linejoin:miter;stroke-miterlimit:4;stroke-dasharray:none;stroke-dashoffset:0;stroke-opacity:1;color-rendering:auto;image-rendering:auto;shape-rendering:auto;text-rendering:auto;enable-background:accumulate;paint-order:stroke fill markers"
       d="M 27.029297 33.708984 A 2.0007325 2.0007325 0 1 0 27.029297 37.710938 L 30.5 37.710938 L 30.5 40 L 24.027344 40 A 2.0002 2.0002 0 1 0 24.027344 44 L 39.970703 44 A 2.0002 2.0002 0 1 0 39.970703 40 L 33.5 40 L 33.5 37.710938 L 36.970703 37.710938 A 2.0007325 2.0007325 0 1 0 36.970703 33.708984 L 27.029297 33.708984 z "
       transform="matrix(0.8,0,0,-0.8,0,51.2)"
       id="path826" /><g
       id="g831"
       transform="translate(16.231579,11.326314)"
       style="stroke:#2c3e50"><path
         style="opacity:1;vector-effect:none;fill:#ecf0f1;fill-opacity:1;stroke:#2c3e50;stroke-width:2;stroke-linecap:butt;stroke-linejoin:round;stroke-miterlimit:4;stroke-dasharray:none;stroke-dashoffset:0;stroke-opacity:1;paint-order:markers stroke fill"
         d="M 29.5 19.5 L 29.5 24.5 L 26.5 24.5 L 32 31.5 L 37.5 24.5 L 34.5 24.5 L 34.5 19.5 L 29.5 19.5 z "
         transform="matrix(0.8,0,0,-0.8,-16.231579,39.873686)"
         id="rect959" /></g></g></svg>

<svg xmlns="http://www.w3.org/2000/svg" xml:space="preserve" width="64" height="64"><path d="M27.03 33.709a2 2 0 1 0 0 4.002h3.47V40h-6.473a2 2 0 1 0 0 4h15.944a2 2 0 1 0 0-4H33.5v-2.29h3.47a2 2 0 1 0 0-4.001z" style="color:#2c3e50;font-style:normal;font-variant:normal;font-weight:400;font-stretch:normal;font-size:medium;line-height:normal;font-family:sans-serif;font-variant-ligatures:normal;font-variant-position:normal;font-variant-caps:normal;font-variant-numeric:normal;font-variant-alternates:normal;font-feature-settings:normal;text-indent:0;text-align:start;text-decoration:none;text-decoration-line:none;text-decoration-style:solid;text-decoration-color:#2c3e50;letter-spacing:normal;word-spacing:normal;text-transform:none;writing-mode:lr-tb;direction:ltr;text-orientation:mixed;dominant-baseline:auto;baseline-shift:baseline;text-anchor:start;white-space:normal;shape-padding:0;clip-rule:nonzero;display:inline;overflow:visible;visibility:visible;opacity:1;isolation:auto;mix-blend-mode:normal;color-interpolation:sRGB;color-interpolation-filters:linearRGB;solid-color:#2c3e50;solid-opacity:1;vector-effect:none;fill:#ecf0f1;fill-opacity:1;fill-rule:nonzero;stroke:#2c3e50;stroke-width:2;stroke-linecap:round;stroke-linejoin:miter;stroke-miterlimit:4;stroke-dasharray:none;stroke-dashoffset:0;stroke-opacity:1;color-rendering:auto;image-rendering:auto;shape-rendering:auto;text-rendering:auto;paint-order:stroke fill markers"/><g style="stroke:#2c3e50"><path d="M29.5 19.5v5h-3l5.5 7 5.5-7h-3v-5z" style="opacity:1;vector-effect:none;fill:#ecf0f1;fill-opacity:1;stroke:#2c3e50;stroke-width:2;stroke-linecap:butt;stroke-linejoin:round;stroke-miterlimit:4;stroke-dasharray:none;stroke-dashoffset:0;stroke-opacity:1;paint-order:markers stroke fill"/></g></svg>
